!!!SOCIAL_FUNCTION:	klokali songs
!!!PDT:	1939
!!!OTL: No_40_Klokali_Song_(b).krn
!!!LANG: Non-Tone
!!!LING_GROUP: Wakashan
!!!REG: Pacific Northwest
**kern
*staff1
=1-
*clefF4
*k[b-e-a-d-g-]
4r
8r
8G-\
=2
2A-\
=3
8B-\L
8B-\J
4B-\
=4
8.B-\L
16A-\Jk
8A-\
8r
=5
8.B-\L
16A-\Jk
4A-\
=6
8A-\L
8A-\J
8A-\
8r
=7||
*M3/4
8.B-\L
16A-\Jk
8A-\
16r
16A-\
8.A-\L
32G-\Jkk
32r
=8
8.A-\L
16G-\Jk
4A-\
8A-\
8r
=9||
*M2/4
8.A-\L
16G-\Jk
8.A-\L
16A-\Jk
=10
8.A-\L
16F\Jk
8F\
16r
16A-\
=11
8A-\L
8A-\J
8A-\
8r
=12!|:
8.A-\L
16A-\Jk
4A-\
=13
8.B-\L
16A-\Jk
8A-\
8r
=14
8.B-\L
16B-\Jk
4B-\
=15
8.B-\L
16A-\Jk
8A-\
8r
=16
8.B-\L
16A-\Jk
4A-\
=17
8.A-\L
16A-\Jk
8A-\
8r
=18||
*M3/4
8.B-\L
16A-\Jk
8A-\
16r
16A-\
8.A-\L
32F\Jkk
32r
=19
8.A-\L
16A-\Jk
4A-\
8A-\
8r
=20||
*M2/4
8.A-\L
16A-\Jk
8.A-\L
16A-\Jk
=21
8.A-\L
16F\Jk
8F\
16r
16A-\
=22
8.A-\L
16A-\Jk
8A-\
8r
=23:|!
8.A-\L
16A-\Jk
4A-\
=24
8.B-\L
16A-\Jk
4A-\
=25
2B-\
==
*-
